DVA
CUT[Bin ich's Wandern muede, sehn ich mich nach Ruh'
    Glueck auf alle Wege nach der Heimat zu]
REG[Europa, Mitteleuropa, Deutschland, Wolga - Kolonie]
KEY[D0146A 16  A 4/4]
MEL[  -5_.11_1_3__1__  4_3_2_1_2___
    -5_-6_-7_1_2_3_4__  5_.43_2_1___
    5_5_6_7_+1_6_5_3_  6_5_4_3_3_4_2__
    -5_.11_1_3_3_1_03  5_5_5_.65__.
    3_  5_5_6_7_+1_6_5_4_  3_4_2__1___ //] >>
FCT[Wander - Lied, Handwerksburschen - Lied]
CMT[Strophenvariante zu D00146; Inzipit = Transposition zum Lied]
